X: 24
T: 24. Surrender of Copenhagen
M: 6/8
L: 1/8
Q: 3/8=120
K: G
G2 G GFG | D2 G GFG | D2 G GFG | ABA d2 d | B2 G GFG | D2 G GFG | D2 G EcB | AGF G3 :|!
d | B2 e e^de | A2 d d^cd | G2 c cBc | c2 c BAB | A2 G GFG | D2 G GFG | D2 G GFG |  AGF G2 :|!


